svg/color/mson.svg

<svg width="40" height="40" viewBox="0 0 40 40" fill="none" xmlns="http://www.w3.org/2000/svg">
<g clip-path="url(#clip0_820_3808)">
<path d="M20 0C31.0457 0 40 8.9543 40 20C40 31.0457 31.0457 40 20 40C8.95431 40 7.90517e-06 31.0457 0 20C6.58765e-07 8.95431 8.95431 1.97595e-06 20 0Z" fill="#D9D9D9"/>
<path d="M26 6C30.4183 6 34 9.58172 34 14V26C34 30.4183 30.4183 34 26 34H14C9.58172 34 6 30.4183 6 26V14C6 9.58172 9.58172 6 14 6H26Z" fill="black"/>
<path d="M27.5392 21.4866L28.4724 24.1328L29.3864 21.4866H30L28.6066 25.3346C28.3957 25.929 28.1016 26.191 27.5775 26.191C27.373 26.191 27.1875 26.1591 26.9958 26.0632L27.1621 25.5902C27.3026 25.6541 27.4241 25.6861 27.5392 25.6861C27.814 25.6861 27.9227 25.5263 28.0696 25.1428L28.1591 24.9063L26.8936 21.4866H27.5392ZM25.3276 21.4227C26.1522 21.4227 26.7082 22.0043 26.7082 23.0974V23.3147H24.4775C24.5158 24.1009 24.8738 24.4333 25.3595 24.4333C25.7239 24.4333 25.9987 24.2543 26.2096 23.8708L26.6699 24.1393C26.3759 24.625 25.9924 24.8935 25.3468 24.8935C24.4647 24.8935 23.8638 24.3119 23.8638 23.1613C23.8638 22.03 24.4647 21.4227 25.3276 21.4227ZM17.031 21.4162C17.7725 21.4162 18.1815 21.8382 18.1815 22.4774V24.1648C18.1815 24.3054 18.2455 24.3693 18.3861 24.3693C18.4244 24.3693 18.4628 24.3693 18.5011 24.363V24.804C18.4244 24.8232 18.3413 24.8424 18.2583 24.8424C17.9195 24.8424 17.7086 24.7273 17.619 24.4844C17.3378 24.7209 16.9862 24.8871 16.6539 24.8872C15.9444 24.8872 15.6184 24.4524 15.6184 23.973C15.6184 23.4553 15.9444 23.0462 16.916 22.8225L17.5807 22.6691V22.5221C17.5807 22.1898 17.4529 21.9085 16.9607 21.9085C16.6412 21.9085 16.3024 22.0939 16.0083 22.439L15.6184 22.1067C15.9572 21.6848 16.4685 21.4162 17.031 21.4162ZM11.5788 20.2913C12.2436 20.2913 12.8444 20.5981 13.1448 21.2629L12.6399 21.5249C12.4354 21.084 12.0518 20.8155 11.5788 20.8155C11.1314 20.8155 10.767 21.0136 10.767 21.4802C10.767 21.9212 11.2017 22.0747 11.7642 22.26C12.6974 22.5668 13.2407 22.8225 13.2407 23.6279C13.2407 24.4269 12.5441 24.8807 11.7131 24.8807C10.9588 24.8807 10.3132 24.5419 10 23.9219L10.4987 23.6279C10.7287 24.0945 11.1698 24.3565 11.7131 24.3565C12.1925 24.3565 12.6015 24.1521 12.6015 23.6727C12.6015 23.1805 12.1349 23.0207 11.5214 22.8289C10.6712 22.5605 10.1343 22.2665 10.1343 21.5249C10.1343 20.7388 10.7926 20.2913 11.5788 20.2913ZM14.6085 20.5661V21.4866H15.2349V21.9596H14.6085V24.0306C14.6085 24.2671 14.7236 24.3693 14.9792 24.3693C15.0815 24.3693 15.1327 24.3693 15.2349 24.3565V24.7976C15.0943 24.8232 14.9729 24.8424 14.8514 24.8424C14.257 24.8424 13.9949 24.593 13.9949 24.1265V21.9596H13.4452V21.4866H13.9949V20.5661H14.6085ZM23.0521 20.3489V24.037C23.0521 24.2607 23.148 24.3502 23.3653 24.3502C23.4356 24.3502 23.506 24.3438 23.5826 24.331V24.7976C23.4676 24.8296 23.3462 24.8424 23.2311 24.8424C22.6877 24.8424 22.4385 24.5739 22.4385 24.1137V20.3489H23.0521ZM20.668 21.4162C21.2625 21.4162 21.646 21.7806 21.646 22.4709V24.8232H21.026V22.4454C21.026 22.0811 20.8087 21.8957 20.5083 21.8957C20.2141 21.8957 19.933 22.0363 19.6708 22.3176V24.8232H19.0509V21.4866H19.6708V21.8317C19.9777 21.5377 20.3165 21.4162 20.668 21.4162ZM16.9799 23.2699C16.4046 23.417 16.2257 23.6407 16.2257 23.9539C16.2257 24.216 16.3983 24.4461 16.7625 24.4461C17.0501 24.4461 17.3314 24.2991 17.5807 24.0881V23.1229L16.9799 23.2699ZM25.3212 21.8893C24.8865 21.8893 24.5605 22.1769 24.4903 22.8672H26.1138C26.0626 22.1833 25.7494 21.8893 25.3212 21.8893ZM21.7009 14.8822C22.0716 14.8822 22.3338 15.0163 22.583 15.2209V14.9461H23.1902V18.321C23.1902 19.1456 22.6342 19.6505 21.752 19.6505C21.2726 19.6505 20.7741 19.4843 20.5121 19.3117L20.7613 18.8323C21.0362 19.0113 21.3558 19.1456 21.7201 19.1456C22.3657 19.1456 22.5638 18.8003 22.5638 18.2314V17.9886C22.3146 18.1995 22.0525 18.3401 21.6882 18.3401C20.9787 18.3401 20.3332 17.8607 20.3331 16.6143C20.3331 15.3744 20.9787 14.8822 21.7009 14.8822ZM16.4021 14.8822C17.2906 14.8822 17.8722 15.5022 17.8722 16.6208C17.8722 17.7393 17.2906 18.3529 16.4021 18.3529C15.5137 18.3529 14.932 17.7393 14.932 16.6208C14.932 15.5022 15.5137 14.8822 16.4021 14.8822ZM25.1845 14.8757C25.9259 14.8757 26.3351 15.2976 26.3351 15.9368V17.6242C26.3351 17.7649 26.399 17.8288 26.5396 17.8288C26.5779 17.8288 26.6162 17.8288 26.6546 17.8224V18.2634C26.5779 18.2827 26.4948 18.3018 26.4118 18.3018C26.0729 18.3018 25.862 18.1868 25.7726 17.9438C25.4913 18.1803 25.1397 18.3466 24.8074 18.3466C24.0979 18.3466 23.7719 17.9119 23.7719 17.4325C23.7719 16.9148 24.0979 16.5056 25.0695 16.2819L25.7342 16.1286V15.9816C25.7342 15.6492 25.6063 15.3679 25.1142 15.3679C24.7945 15.3679 24.4558 15.5533 24.1618 15.8984L23.7719 15.5661C24.1107 15.1442 24.6221 14.8757 25.1845 14.8757ZM11.2822 13.8083L12.2603 17.1576L13.2446 13.8083H14.2801V18.2827H13.6537V14.3197L12.4712 18.2827H12.0109L10.8284 14.3069L10.8348 18.2827H10.2468V13.8083H11.2822ZM20.0199 14.8437C20.1031 14.8437 20.1733 14.8565 20.2181 14.8693V15.4383C20.167 15.419 20.0966 15.4126 20.0199 15.4126C19.7259 15.4126 19.4383 15.5468 19.125 16.0327V18.2827H18.5115V14.9461H19.125V15.4829C19.3615 15.0674 19.7131 14.8437 20.0199 14.8437ZM28.8215 14.8757C29.416 14.8757 29.7995 15.2401 29.7995 15.9304V18.2827H29.1795V15.9048C29.1795 15.5405 28.9621 15.3551 28.6617 15.3551C28.3677 15.3551 28.0864 15.4957 27.8244 15.777V18.2827H27.2043V14.9461H27.8244V15.2912C28.1311 14.9972 28.4699 14.8757 28.8215 14.8757ZM25.1334 16.7293C24.5581 16.8764 24.3791 17.1002 24.3791 17.4133C24.3791 17.6754 24.5517 17.9055 24.916 17.9055C25.2037 17.9055 25.485 17.7585 25.7342 17.5476V16.5824L25.1334 16.7293ZM16.4021 15.3487C15.9035 15.3487 15.5457 15.7451 15.5457 16.6208C15.5457 17.4964 15.9035 17.8863 16.4021 17.8863C16.9071 17.8863 17.2587 17.4964 17.2587 16.6208C17.2587 15.7451 16.9071 15.3487 16.4021 15.3487ZM21.7777 15.3551C21.3302 15.3551 20.9467 15.7003 20.9467 16.6208C20.9467 17.5348 21.3302 17.8799 21.7777 17.8799C22.0844 17.8735 22.2953 17.7648 22.5638 17.5348V15.7066C22.2954 15.4702 22.0909 15.3551 21.7777 15.3551Z" fill="white"/>
</g>
<defs>
<clipPath id="clip0_820_3808">
<rect width="40" height="40" fill="white"/>
</clipPath>
</defs>
</svg>

<svg xmlns="http://www.w3.org/2000/svg" width="40" height="40" fill="none" viewBox="0 0 40 40"><g clip-path="url(#mson_svg-a)"><path fill="#D9D9D9" d="M20 0c11.046 0 20 8.954 20 20s-8.954 20-20 20S0 31.046 0 20 8.954 0 20 0"/><path fill="#000" d="M26 6a8 8 0 0 1 8 8v12a8 8 0 0 1-8 8H14a8 8 0 0 1-8-8V14a8 8 0 0 1 8-8z"/><path fill="#fff" d="m27.54 21.487.932 2.646.914-2.646H30l-1.393 3.848c-.211.594-.505.856-1.03.856a1.24 1.24 0 0 1-.581-.128l.166-.473c.14.064.262.096.377.096.275 0 .384-.16.53-.543l.09-.237-1.265-3.42zm-2.212-.064c.824 0 1.38.581 1.38 1.674v.218h-2.23c.038.786.396 1.118.881 1.118.365 0 .64-.179.85-.562l.46.268c-.293.486-.677.755-1.322.755-.882 0-1.483-.582-1.483-1.733 0-1.131.6-1.738 1.464-1.738m-8.297-.007c.742 0 1.15.422 1.15 1.061v1.688c0 .14.064.204.205.204q.058.002.115-.006v.441a1 1 0 0 1-.243.038c-.338 0-.55-.115-.639-.358-.281.237-.633.403-.965.403-.71 0-1.036-.435-1.036-.914 0-.518.326-.927 1.298-1.15l.665-.154v-.147c0-.332-.128-.613-.62-.613-.32 0-.659.185-.953.53l-.39-.332c.34-.422.85-.69 1.413-.69m-5.452-1.125c.665 0 1.265.307 1.566.972l-.505.262c-.205-.441-.588-.71-1.061-.71-.448 0-.812.199-.812.665 0 .441.435.595.997.78.933.307 1.477.563 1.477 1.368 0 .799-.697 1.253-1.528 1.253-.754 0-1.4-.34-1.713-.96l.499-.293c.23.466.67.729 1.214.729.48 0 .889-.205.889-.684 0-.492-.467-.652-1.08-.844-.85-.268-1.388-.562-1.388-1.304 0-.786.659-1.234 1.445-1.234m3.03.275v.92h.626v.474h-.626v2.07c0 .237.115.34.37.34.103 0 .154 0 .256-.014v.442c-.14.025-.262.044-.384.044-.594 0-.856-.249-.856-.715V21.96h-.55v-.473h.55v-.92zm8.443-.217v3.688c0 .224.096.313.313.313q.104 0 .218-.019v.467a1.3 1.3 0 0 1-.352.044c-.543 0-.793-.268-.793-.728V20.35zm-2.384 1.067c.595 0 .978.365.978 1.055v2.352h-.62v-2.378c0-.364-.217-.55-.518-.55q-.443 0-.837.423v2.505h-.62v-3.336h.62v.345a1.4 1.4 0 0 1 .997-.416M16.98 23.27c-.575.147-.754.37-.754.684 0 .262.172.492.537.492.287 0 .568-.147.818-.358v-.965zm8.341-1.38c-.434 0-.76.287-.83.977h1.623c-.051-.684-.365-.978-.793-.978m-3.62-7.008c.37 0 .633.134.882.339v-.275h.607v3.375c0 .825-.556 1.33-1.438 1.33-.48 0-.978-.167-1.24-.34l.25-.479c.274.18.594.314.958.314.646 0 .844-.346.844-.915v-.242c-.25.21-.512.351-.876.351-.71 0-1.355-.48-1.355-1.726 0-1.24.646-1.732 1.368-1.732m-5.299 0c.889 0 1.47.62 1.47 1.739 0 1.118-.581 1.732-1.47 1.732-.888 0-1.47-.614-1.47-1.732 0-1.119.582-1.739 1.47-1.739m8.782-.006c.742 0 1.151.422 1.151 1.06v1.688c0 .14.064.205.205.205q.057.002.115-.007v.441a1 1 0 0 1-.243.039c-.34 0-.55-.115-.64-.358-.28.236-.632.403-.965.403-.71 0-1.035-.435-1.035-.915 0-.517.326-.926 1.298-1.15l.664-.153v-.147c0-.333-.128-.614-.62-.614-.32 0-.658.185-.952.53l-.39-.332c.339-.422.85-.69 1.413-.69m-13.902-1.068.978 3.35.985-3.35h1.035v4.475h-.626V14.32l-1.183 3.963h-.46l-1.183-3.976.007 3.976h-.588v-4.475zm8.738 1.036c.083 0 .153.013.198.025v.57a.6.6 0 0 0-.198-.026c-.294 0-.582.134-.895.62v2.25h-.613v-3.337h.613v.537c.236-.416.588-.64.895-.64m8.802.032c.594 0 .977.364.977 1.054v2.353h-.62v-2.378c0-.364-.217-.55-.517-.55-.294 0-.576.14-.838.422v2.506h-.62v-3.337h.62v.345a1.4 1.4 0 0 1 .997-.415m-3.689 1.853c-.575.147-.754.371-.754.684 0 .262.173.492.537.492.288 0 .569-.146.818-.357v-.966zm-8.73-1.38c-.5 0-.857.396-.857 1.272 0 .875.357 1.265.856 1.265.505 0 .857-.39.857-1.265 0-.876-.352-1.272-.857-1.272m5.375.006c-.448 0-.831.345-.831 1.266 0 .914.383 1.259.83 1.259.307-.006.518-.115.787-.345v-1.828c-.269-.237-.473-.352-.786-.352"/></g><defs><clipPath id="mson_svg-a"><path fill="#fff" d="M0 0h40v40H0z"/></clipPath></defs></svg>
